{
  "compressionlevel": -1,
  "height": 20,
  "width": 12,
  "infinite": false,
  "orientation": "orthogonal",
  "renderorder": "right-down",
  "tileheight": 48,
  "tilewidth": 48,
  "tiledversion": "1.10.2",
  "type": "map",
  "version": "1.10",
  "layers": [
    {
      "data": [1, 2, 1, 2, 1, 2, 1, 2, 1, 2, 1, 2, 2, 1, 2, 1, 2, 1, 2, 1, 2, 1, 2, 1, 1, 2, 1, 2, 1, 2, 1, 2, 1, 2, 1, 2, 2, 1, 2, 1, 2, 1, 2, 1, 2, 1, 2, 1, 1, 2, 1, 2, 1, 2, 1, 2, 1, 2, 1, 2, 2, 1, 2, 1, 2, 1, 2, 1, 2, 1, 2, 1, 1, 2, 1, 2, 1, 2, 1, 2, 1, 2, 1, 2, 2, 1, 2, 1, 2, 1, 2, 1, 2, 1, 2, 1, 1, 2, 1, 2, 1, 2, 1, 2, 1, 2, 1, 2, 2, 1, 2, 1, 2, 1, 2, 1, 2, 1, 2, 1, 1, 2, 1, 2, 1, 2, 1, 2, 1, 2, 1, 2, 2, 1, 2, 1, 2, 1, 2, 1, 2, 1, 2, 1, 1, 2, 1, 2, 1, 2, 1, 2, 1, 2, 1, 2, 2, 1, 2, 1, 2, 1, 2, 1, 2, 1, 2, 1, 1, 2, 1, 2, 1, 2, 1, 2, 1, 2, 1, 2, 2, 1, 2, 1, 2, 1, 2, 1, 2, 1, 2, 1, 1, 2, 1, 2, 1, 2, 1, 2, 1, 2, 1, 2, 2, 1, 2, 1, 2, 1, 2, 1, 2, 1, 2, 1, 1, 2, 1, 2, 1, 2, 1, 2, 1, 2, 1, 2, 2, 1, 2, 1, 2, 1, 2, 1, 2, 1, 2, 1],
      "height": 20,
      "id": 1,
      "name": "ground_base",
      "opacity": 1,
      "type": "tilelayer",
      "visible": true,
      "width": 12,
      "x": 0,
      "y": 0
    },
    {
      "data": [0, 0, 0, 0, 3, 3, 3, 3, 0, 0, 0, 0, 0, 0, 0, 0, 3, 3, 3, 3, 0, 0, 0, 0, 0, 0, 0, 0, 3, 3, 3, 3, 0, 0, 0, 0, 0, 0, 0, 3, 3, 3, 3, 3, 0, 0, 0, 0, 0, 0, 0, 3, 3, 3, 3, 3, 0, 0, 0, 0, 0, 0, 0, 3, 3, 3, 3, 3, 0, 0, 0, 0, 0, 0, 0, 0, 3, 3, 3, 3, 3, 0, 0, 0, 0, 0, 0, 0, 3, 3, 3, 3, 3, 0, 0, 0, 0, 0, 0, 0, 3, 3, 3, 3, 3, 0, 0, 0, 0, 0, 0, 3, 3, 3, 3, 3, 3, 0, 0, 0, 0, 0, 0, 3, 3, 3, 3, 3, 3, 0, 0, 0, 0, 0, 0, 3, 3, 3, 3, 3, 3, 0, 0, 0, 0, 0, 0, 0, 3, 3, 3, 3, 0, 0, 0, 0, 0, 0, 0, 0, 3, 3, 3, 3, 0, 0, 0, 0, 0, 0, 0, 0, 3, 3, 3, 3, 0, 0, 0, 0, 0, 0, 0, 0, 3, 3, 3, 3, 3, 0, 0, 0, 0, 0, 0, 0, 3, 3, 3, 3, 3, 0, 0, 0, 0, 0, 0, 0, 3, 3, 3, 3, 3, 0, 0, 0, 0, 0, 0, 0, 3, 3, 3, 3, 0, 0, 0, 0, 0, 0, 0, 0, 3, 3, 3, 3, 0, 0, 0, 0],
      "height": 20,
      "id": 2,
      "name": "road_low",
      "opacity": 1,
      "type": "tilelayer",
      "visible": true,
      "width": 12,
      "x": 0,
      "y": 0
    },
    {
      "data": [10, 10, 10, 0, 0, 0, 0, 0, 0, 10, 10, 10, 10, 11, 10, 0, 0, 0, 0, 0, 0, 10, 11, 10, 10, 11, 10, 10, 0, 0, 0, 0, 0, 10, 11, 10, 10, 11, 10, 10, 0, 0, 0, 0, 0, 10, 11, 10, 10, 11, 10, 10, 0, 0, 0, 0, 0, 10, 11, 10, 10, 11, 10, 10, 0, 0, 0, 0, 0, 10, 11, 10, 10, 11, 10, 0, 0, 0, 0, 0, 10, 10, 11, 10, 10, 11, 10, 0, 0, 0, 0, 0, 10, 10, 11, 10, 10, 11, 10, 0, 0, 0, 0, 0, 10, 10, 11, 10, 10, 11, 10, 0, 0, 0, 0, 0, 10, 10, 11, 10, 10, 11, 10, 10, 0, 0, 0, 0, 0, 10, 11, 10, 10, 11, 10, 10, 0, 0, 0, 0, 0, 10, 11, 10, 10, 11, 10, 10, 0, 0, 0, 0, 0, 10, 11, 10, 10, 11, 10, 10, 0, 0, 0, 0, 0, 10, 11, 10, 10, 11, 10, 0, 0, 0, 0, 0, 10, 10, 11, 10, 10, 11, 10, 0, 0, 0, 0, 0, 10, 10, 11, 10, 10, 11, 10, 0, 0, 0, 0, 0, 10, 10, 11, 10, 10, 11, 10, 0, 0, 0, 0, 0, 10, 10, 11, 10, 10, 11, 10, 0, 0, 0, 0, 0, 0, 10, 11, 10, 10, 10, 10, 0, 0, 0, 0, 0, 0, 10, 10, 10],
      "height": 20,
      "id": 3,
      "name": "platform_high",
      "opacity": 1,
      "type": "tilelayer",
      "visible": true,
      "width": 12,
      "x": 0,
      "y": 0
    },
    {
      "data": [33, 33, 33, 42, 0, 0, 0, 0, 42, 33, 33, 33, 33, 33, 33, 42, 0, 0, 0, 0, 42, 33, 33, 33, 0, 0, 0, 42, 0, 0, 0, 0, 42, 0, 0, 0, 0, 0, 0, 42, 0, 0, 0, 0, 42, 0, 0, 0, 0, 0, 0, 42, 0, 0, 0, 0, 42, 0, 0, 0, 0, 0, 0, 42, 0, 0, 0, 0, 42, 0, 0, 0, 0, 0, 0, 42, 0, 0, 0, 0, 42, 0, 0, 0, 0, 0, 0, 42, 0, 0, 0, 0, 42, 0, 0, 0, 0, 0, 0, 42, 0, 0, 0, 0, 42, 0, 0, 0, 0, 0, 0, 42, 0, 0, 0, 0, 42, 0, 0, 0, 0, 0, 0, 42, 0, 0, 0, 0, 42, 0, 0, 0, 0, 0, 0, 42, 0, 0, 0, 0, 42, 0, 0, 0, 0, 0, 0, 42, 0, 0, 0, 0, 42, 0, 0, 0, 0, 0, 0, 42, 0, 0, 0, 0, 42, 0, 0, 0, 0, 0, 0, 42, 0, 0, 0, 0, 42, 0, 0, 0, 0, 0, 0, 42, 0, 0, 0, 0, 42, 0, 0, 0, 0, 0, 0, 42, 0, 0, 0, 0, 42, 0, 0, 0, 33, 33, 33, 42, 0, 0, 0, 0, 42, 33, 33, 33, 33, 33, 33, 42, 0, 0, 0, 0, 42, 33, 33, 33, 0, 0, 0, 0, 0, 0, 0, 0, 0, 0, 0, 0],
      "height": 20,
      "id": 4,
      "name": "cliff_faces",
      "opacity": 1,
      "type": "tilelayer",
      "visible": true,
      "width": 12,
      "x": 0,
      "y": 0
    },
    {
      "data": [0, 0, 0, 0, 0, 0, 0, 0, 0, 0, 0, 0, 44, 44, 44, 0, 0, 0, 0, 0, 0, 44, 44, 44, 44, 44, 44, 0, 0, 0, 0, 0, 0, 44, 44, 44, 44, 44, 44, 0, 0, 0, 0, 0, 0, 44, 44, 44, 44, 44, 44, 0, 0, 0, 0, 0, 0, 44, 44, 44, 0, 0, 0, 0, 0, 0, 0, 0, 0, 0, 0, 0, 0, 0, 0, 0, 0, 0, 0, 0, 0, 0, 0, 0, 0, 0, 0, 44, 0, 0, 0, 0, 0, 0, 44, 0, 0, 0, 0, 44, 0, 0, 0, 0, 0, 0, 44, 0, 0, 0, 0, 44, 0, 0, 0, 0, 0, 0, 44, 0, 0, 0, 0, 44, 0, 0, 0, 0, 0, 0, 44, 0, 0, 0, 0, 44, 0, 0, 0, 0, 0, 0, 44, 0, 0, 0, 0, 44, 0, 0, 0, 0, 0, 0, 44, 0, 0, 0, 0, 44, 0, 0, 0, 0, 0, 0, 44, 0, 0, 0, 0, 0, 0, 0, 0, 0, 0, 0, 0, 0, 0, 44, 44, 44, 0, 0, 0, 0, 0, 0, 44, 44, 44, 44, 44, 44, 0, 0, 0, 0, 0, 0, 44, 44, 44, 44, 44, 44, 0, 0, 0, 0, 0, 0, 44, 44, 44, 44, 44, 44, 0, 0, 0, 0, 0, 0, 44, 44, 44, 0, 0, 0, 0, 0, 0, 0, 0, 0, 0, 0],
      "height": 20,
      "id": 5,
      "name": "wall_mass",
      "opacity": 1,
      "type": "tilelayer",
      "visible": true,
      "width": 12,
      "x": 0,
      "y": 0
    },
    {
      "data": [35, 35, 35, 0, 0, 0, 0, 0, 0, 35, 35, 35, 0, 0, 0, 34, 0, 0, 0, 0, 32, 0, 0, 0, 0, 0, 0, 34, 0, 0, 0, 0, 32, 0, 0, 0, 0, 0, 0, 34, 0, 0, 0, 0, 32, 0, 0, 0, 0, 0, 0, 34, 0, 0, 0, 0, 32, 0, 0, 0, 35, 35, 35, 0, 0, 0, 0, 0, 0, 35, 35, 35, 0, 0, 0, 0, 0, 0, 0, 0, 0, 0, 0, 0, 0, 0, 0, 0, 32, 0, 0, 0, 0, 0, 0, 0, 0, 34, 0, 0, 32, 0, 0, 0, 0, 0, 0, 0, 0, 34, 0, 0, 32, 0, 0, 0, 0, 0, 0, 0, 0, 34, 0, 0, 32, 0, 0, 0, 0, 0, 0, 0, 0, 34, 0, 0, 32, 0, 0, 0, 0, 0, 0, 0, 0, 34, 0, 0, 32, 0, 0, 0, 0, 0, 0, 0, 0, 34, 0, 35, 35, 35, 0, 0, 0, 0, 0, 0, 35, 35, 35, 0, 0, 0, 34, 0, 0, 0, 0, 32, 0, 0, 0, 0, 0, 0, 34, 0, 0, 0, 0, 32, 0, 0, 0, 0, 0, 0, 34, 0, 0, 0, 0, 32, 0, 0, 0, 0, 0, 0, 34, 0, 0, 0, 0, 32, 0, 0, 0, 0, 0, 0, 34, 0, 0, 0, 0, 32, 0, 0, 0, 35, 35, 35, 0, 0, 0, 0, 0, 0],
      "height": 20,
      "id": 6,
      "name": "wall_trim",
      "opacity": 1,
      "type": "tilelayer",
      "visible": true,
      "width": 12,
      "x": 0,
      "y": 0
    },
    {
      "data": [0, 0, 5, 0, 0, 0, 0, 0, 0, 6, 0, 0, 0, 0, 0, 0, 0, 0, 0, 0, 0, 0, 0, 0, 0, 0, 0, 0, 0, 0, 0, 0, 0, 0, 0, 0, 0, 0, 0, 0, 0, 0, 0, 0, 0, 0, 0, 0, 0, 0, 0, 0, 0, 0, 0, 0, 0, 0, 0, 0, 0, 0, 0, 0, 0, 0, 0, 0, 0, 0, 0, 0, 5, 6, 0, 0, 0, 0, 0, 0, 0, 0, 6, 5, 0, 0, 0, 0, 0, 0, 0, 0, 0, 0, 0, 0, 0, 0, 0, 0, 0, 0, 0, 0, 0, 0, 0, 0, 5, 0, 0, 0, 0, 0, 0, 0, 0, 0, 0, 6, 0, 0, 0, 0, 0, 0, 0, 0, 0, 0, 0, 0, 0, 0, 0, 0, 0, 0, 0, 0, 0, 0, 0, 0, 0, 6, 5, 0, 0, 0, 0, 0, 0, 0, 0, 5, 6, 0, 0, 0, 0, 0, 0, 0, 0, 0, 0, 0, 0, 0, 0, 0, 0, 0, 0, 0, 0, 0, 0, 0, 0, 0, 0, 0, 0, 0, 0, 0, 0, 0, 0, 0, 0, 0, 0, 0, 0, 0, 0, 0, 0, 0, 0, 0, 0, 0, 0, 0, 0, 0, 0, 0, 0, 0, 0, 0, 0, 0, 0, 0, 0, 0, 0, 0, 0, 0, 0, 0, 0, 0, 0, 0, 0, 0, 0, 0, 6, 0, 0, 0],
      "height": 20,
      "id": 7,
      "name": "foliage_low",
      "opacity": 1,
      "type": "tilelayer",
      "visible": true,
      "width": 12,
      "x": 0,
      "y": 0
    },
    {
      "draworder": "topdown",
      "id": 8,
      "name": "decorations",
      "objects": [
        {
          "id": 1,
          "name": "left-upper-rock",
          "rotation": 0,
          "type": "decoration",
          "visible": true,
          "x": 96,
          "y": 96,
          "width": 48,
          "height": 48,
          "properties": [
            {
              "name": "kind",
              "type": "string",
              "value": "rock_large"
            },
            {
              "name": "assetKey",
              "type": "string",
              "value": "tiny-swords-rock-1"
            },
            {
              "name": "variant",
              "type": "string",
              "value": "Rock1.png"
            }
          ]
        },
        {
          "id": 2,
          "name": "right-upper-tree",
          "rotation": 0,
          "type": "decoration",
          "visible": true,
          "x": 480,
          "y": 144,
          "width": 48,
          "height": 48,
          "properties": [
            {
              "name": "kind",
              "type": "string",
              "value": "tree_large"
            },
            {
              "name": "assetKey",
              "type": "string",
              "value": "tiny-swords-tree-2"
            },
            {
              "name": "variant",
              "type": "string",
              "value": "Tree2.png"
            }
          ]
        },
        {
          "id": 3,
          "name": "left-lower-bush",
          "rotation": 0,
          "type": "decoration",
          "visible": true,
          "x": 48,
          "y": 768,
          "width": 48,
          "height": 48,
          "properties": [
            {
              "name": "kind",
              "type": "string",
              "value": "bush"
            },
            {
              "name": "assetKey",
              "type": "string",
              "value": "tiny-swords-bush-3"
            },
            {
              "name": "variant",
              "type": "string",
              "value": "Bushe3.png"
            }
          ]
        },
        {
          "id": 4,
          "name": "right-lower-rock",
          "rotation": 0,
          "type": "decoration",
          "visible": true,
          "x": 528,
          "y": 816,
          "width": 48,
          "height": 48,
          "properties": [
            {
              "name": "kind",
              "type": "string",
              "value": "rock_small"
            },
            {
              "name": "assetKey",
              "type": "string",
              "value": "tiny-swords-rock-4"
            },
            {
              "name": "variant",
              "type": "string",
              "value": "Rock4.png"
            }
          ]
        }
      ],
      "opacity": 1,
      "type": "objectgroup",
      "visible": true,
      "x": 0,
      "y": 0
    }
  ],
  "tilesets": [
    {
      "firstgid": 1,
      "name": "tiny-swords-color-1",
      "tilecount": 54,
      "tilewidth": 64,
      "tileheight": 64,
      "columns": 9,
      "imagewidth": 576,
      "imageheight": 384,
      "image": "../vendor/tiny-swords/terrain/tileset/Tilemap_color1.png"
    }
  ]
}
